.local/share/icons/Gruvbox-Plus-Dark/actions/16/run-build-install.svg

<svg xmlns="http://www.w3.org/2000/svg" width="16" height="16" version="1.1" viewBox="0 0 16 16">
 <defs>
  <style id="current-color-scheme" type="text/css">
   .ColorScheme-Text { color:#ebdbb2; } .ColorScheme-Highlight { color:#458588; }
  </style>
 </defs>
 <path style="fill:currentColor" class="ColorScheme-Text" d="M 7,1 V 2.0859375 C 6.10944,2.2386175 5.2648969,2.5904744 4.5292969,3.1152344 L 3.7578125,2.34375 2.34375,3.7578125 3.1132812,4.5273438 C 2.5903313,5.2640038 2.2404537,6.1092 2.0898438,7 H 1 v 2 h 1.0859375 c 0.15268,0.89056 0.5045369,1.735103 1.0292969,2.470703 L 2.34375,12.242188 3.7578125,13.65625 4.5273438,12.886719 C 5.2640037,13.409669 6.1092,13.759546 7,13.910156 V 15 h 2 v -1.085938 c 0.89056,-0.15268 1.735103,-0.504536 2.470703,-1.029296 l 0.771485,0.771484 1.414062,-1.414062 -0.769531,-0.769532 C 13.409669,10.735996 13.759546,9.8908 13.910156,9 H 15 V 7 H 13.914062 C 13.761383,6.10944 13.409526,5.2648969 12.884766,4.5292969 L 13.65625,3.7578125 12.242188,2.34375 11.472656,3.1132812 C 10.735996,2.5903312 9.8908,2.2404538 9,2.0898438 V 1 Z m 0,3 h 2 v 5 h 2 L 8,12 5,9 v 0 h 2 z"/>
</svg>

<svg width="16" height="16" version="1.1" xmlns="http://www.w3.org/2000/svg">
  <defs>
    <style id="current-color-scheme" type="text/css">.ColorScheme-Text { color:#ebdbb2; } .ColorScheme-Highlight { color:#458588; }</style>
  </defs>
  <path class="ColorScheme-Text" d="m7 1v1.086c-0.8906 0.1527-1.735 0.5045-2.471 1.029l-0.7715-0.7715-1.414 1.414 0.7695 0.7695c-0.5229 0.7367-0.8728 1.582-1.023 2.473h-1.09v2h1.086c0.1527 0.8906 0.5045 1.735 1.029 2.471l-0.7715 0.7715 1.414 1.414 0.7695-0.7695c0.7367 0.523 1.582 0.8728 2.473 1.023v1.09h2v-1.086c0.8906-0.1527 1.735-0.5045 2.471-1.029l0.7715 0.7715 1.414-1.414-0.7695-0.7695c0.523-0.7367 0.8728-1.582 1.023-2.473h1.09v-2h-1.086c-0.1527-0.8906-0.5045-1.735-1.029-2.471l0.7715-0.7715-1.414-1.414-0.7695 0.7695c-0.7367-0.523-1.582-0.8728-2.473-1.023v-1.09zm0 3h2v4h2l-3 4-3-4h2z" fill="currentColor"/>
</svg>
